public/build/img/sistema/eliminar.svg

<svg width="18" height="20" viewBox="0 0 18 20" fill="none" xmlns="http://www.w3.org/2000/svg">
<g clip-path="url(#clip0_703_243)">
<path d="M5.43214 0.691406C5.64911 0.265625 6.09509 0 6.58125 0H11.4188C11.9049 0 12.3509 0.265625 12.5679 0.691406L12.8571 1.25H16.7143C17.4254 1.25 18 1.80859 18 2.5C18 3.19141 17.4254 3.75 16.7143 3.75H1.28571C0.574554 3.75 0 3.19141 0 2.5C0 1.80859 0.574554 1.25 1.28571 1.25H5.14286L5.43214 0.691406ZM1.28571 5H16.7143V17.5C16.7143 18.8789 15.5612 20 14.1429 20H3.85714C2.43884 20 1.28571 18.8789 1.28571 17.5V5ZM5.14286 7.5C4.78929 7.5 4.5 7.78125 4.5 8.125V16.875C4.5 17.2188 4.78929 17.5 5.14286 17.5C5.49643 17.5 5.78571 17.2188 5.78571 16.875V8.125C5.78571 7.78125 5.49643 7.5 5.14286 7.5ZM9 7.5C8.64643 7.5 8.35714 7.78125 8.35714 8.125V16.875C8.35714 17.2188 8.64643 17.5 9 17.5C9.35357 17.5 9.64286 17.2188 9.64286 16.875V8.125C9.64286 7.78125 9.35357 7.5 9 7.5ZM12.8571 7.5C12.5036 7.5 12.2143 7.78125 12.2143 8.125V16.875C12.2143 17.2188 12.5036 17.5 12.8571 17.5C13.2107 17.5 13.5 17.2188 13.5 16.875V8.125C13.5 7.78125 13.2107 7.5 12.8571 7.5Z" fill="#FF0000"/>
</g>
<defs>
<clipPath id="clip0_703_243">
<rect width="18" height="20" fill="white"/>
</clipPath>
</defs>
</svg>

<svg width="18" height="20" fill="none" xmlns="http://www.w3.org/2000/svg"><g clip-path="url(#a)"><path d="M5.432.691A1.285 1.285 0 0 1 6.582 0h4.837c.486 0 .932.266 1.149.691l.29.559h3.856c.711 0 1.286.559 1.286 1.25s-.575 1.25-1.286 1.25H1.286C.575 3.75 0 3.191 0 2.5s.575-1.25 1.286-1.25h3.857l.29-.559ZM1.286 5h15.428v12.5c0 1.379-1.153 2.5-2.571 2.5H3.857c-1.418 0-2.571-1.121-2.571-2.5V5Zm3.857 2.5a.636.636 0 0 0-.643.625v8.75c0 .344.29.625.643.625a.636.636 0 0 0 .643-.625v-8.75a.636.636 0 0 0-.643-.625ZM9 7.5a.636.636 0 0 0-.643.625v8.75c0 .344.29.625.643.625a.636.636 0 0 0 .643-.625v-8.75A.636.636 0 0 0 9 7.5Zm3.857 0a.636.636 0 0 0-.643.625v8.75c0 .344.29.625.643.625a.636.636 0 0 0 .643-.625v-8.75a.636.636 0 0 0-.643-.625Z" fill="red"/></g><defs><clipPath id="a"><path fill="#fff" d="M0 0h18v20H0z"/></clipPath></defs></svg>
